/* XPM */
static char *result[] = {
/* columns rows colors chars-per-pixel */
"64 64 15 1 ",
"  c #252525",
". c #50330B",
"X c #3D4027",
"o c #6D4412",
"O c #99682A",
"+ c #A76921",
"@ c #B57A28",
"# c #7F8975",
"$ c #CC8F3D",
"% c #DC9C4A",
"& c #EEA343",
"* c #9BA58E",
"= c #ACB7A1",
"- c #DAE5CE",
"; c #4E6338",
/* pixels */
";;;;;;;;;;;;;;;;;;;;;;;;;;;;;;;;;;;;;;;;;;;;;;;;;;;;;;;;;;;;;;;;",
";;;;;;;;;;;;;;;;;;;;;;;;;;;;;;;;;;;;;;;;;;;;;;;;;;;;;;;;;;;;;;;;",
";;;;;;;;;;;;;;;;;;;;;;;;;;;;;;;;;;;;;;;;;;;;;;;;;;;;;;;;;;;;;;;;",
";;;;;;;;;;;;;;;;;;;;;;;;;;;;;;;;;;;;;;;;;;;;;;;;;;;;;;;;;;;;;;;;",
";;;;;;;;;;;;;;;;;;;;;;;;;;;;;;;;;;;;;;;;;;;;;;;;;;;;;;;;;;;;;;;;",
";;;;;;;;;;;;;;;;;;;;;;;;;;;;;;;;;;;;;;;;;;;;;;;;;;;;;;;;;;;;;;;;",
";;;;;;;;;;;;;;;;;;;;;;;;;;;;;;;;;;;;;;;;;;;;;;;;;;;;;;;;;;;;;;;;",
";;;;;;;;;;;;;;;;;;;;;;;;;;;;;;;;;;;;;;;;;;;;;;;;;;;;;;;;;;;;;;;;",
";;;;;;;;;;;;........oooooooooooooooooooooooo........;;;;;;;;;;;;",
";;;;;;;;;;;;........oooooooooooooooooooooooo........;;;;;;;;;;;;",
";;;;;;;;;;;;........oooooooooooooooooooooooo........;;;;;;;;;;;;",
";;;;;;;;;;;;........oooooooooooooooooooooooo........;;;;;;;;;;;;",
";;;;;;;;....$$$$$$$$%%%%%%%%&&&&&&&&&&&&%%%%$$$$$$$$....;;;;;;;;",
";;;;;;;;....$$$$$$$$%%%%%%%%&&&&&&&&&&&&%%%%$$$$$$$$....;;;;;;;;",
";;;;;;;;....$$$$$$$$%%%%%%%%&&&&&&&&&&&&%%%%$$$$$$$$....;;;;;;;;",
";;;;;;;;....$$$$$$$$%%%%%%%%&&&&&&&&&&&&%%%%$$$$$$$$....;;;;;;;;",
";;;;;;;;....++++++++++++@@@@@@@@@@@@@@@@++++++++++++....;;;;;;;;",
";;;;;;;;....++++++++++++@@@@@@@@@@@@@@@@++++++++++++....;;;;;;;;",
";;;;;;;;....++++++++++++@@@@@@@@@@@@@@@@++++++++++++....;;;;;;;;",
";;;;;;;;....++++++++++++@@@@@@@@@@@@@@@@++++++++++++....;;;;;;;;",
";;;;;;;;....$$$$$$$$%%%%%%%%%%%%%%%%%%%%%%%%$$$$$$$$....;;;;;;;;",
";;;;;;;;....$$$$$$$$%%%%%%%%%%%%%%%%%%%%%%%%$$$$$$$$....;;;;;;;;",
";;;;;;;;....$$$$$$$$%%%%%%%%%%%%%%%%%%%%%%%%$$$$$$$$....;;;;;;;;",
";;;;;;;;....$$$$$$$$%%%%%%%%%%%%%%%%%%%%%%%%$$$$$$$$....;;;;;;;;",
";;;;;;;;oooo++++++++++++++++@@@@@@@@@@@@@@@@++++++++oooo;;;;;;;;",
";;;;;;;;oooo++++++++++++++++@@@@@@@@@@@@@@@@++++++++oooo;;;;;;;;",
";;;;;;;;oooo++++++++++++++++@@@@@@@@@@@@@@@@++++++++oooo;;;;;;;;",
";;;;;;;;oooo++++++++++++++++@@@@@@@@@@@@@@@@++++++++oooo;;;;;;;;",
";;;;;;;;....%%%%%%%%%%%%&&&&&&&&&&&&%%%%%%%%@@@@@@@@....;;;;;;;;",
";;;;;;;;....%%%%%%%%%%%%&&&&&&&&&&&&%%%%%%%%@@@@@@@@....;;;;;;;;",
";;;;;;;;....%%%%%%%%%%%%&&&&&&&&&&&&%%%%%%%%@@@@@@@@....;;;;;;;;",
";;;;;;;;....%%%%%%%%%%%%&&&&&&&&&&&&%%%%%%%%@@@@@@@@....;;;;;;;;",
";;;;;;;;........OOOO####                ####OOOO........;;;;;;;;",
";;;;;;;;........OOOO####                ####OOOO........;;;;;;;;",
";;;;;;;;........OOOO####                ####OOOO........;;;;;;;;",
";;;;;;;;........OOOO####                ####OOOO........;;;;;;;;",
";;;;;;;;;;;;XXXXOOOO                        OOOOXXXX;;;;;;;;;;;;",
";;;;;;;;;;;;XXXXOOOO                        OOOOXXXX;;;;;;;;;;;;",
";;;;;;;;;;;;XXXXOOOO                        OOOOXXXX;;;;;;;;;;;;",
";;;;;;;;;;;;XXXXOOOO                        OOOOXXXX;;;;;;;;;;;;",
";;;;;;;;;;;;XXXX====                        ====XXXX;;;;;;;;;;;;",
";;;;;;;;;;;;XXXX====                        ====XXXX;;;;;;;;;;;;",
";;;;;;;;;;;;XXXX====                        ====XXXX;;;;;;;;;;;;",
";;;;;;;;;;;;XXXX====                        ====XXXX;;;;;;;;;;;;",
";;;;;;;;;;;;XXXX----====                ====----XXXX;;;;;;;;;;;;",
";;;;;;;;;;;;XXXX----====                ====----XXXX;;;;;;;;;;;;",
";;;;;;;;;;;;XXXX----====                ====----XXXX;;;;;;;;;;;;",
";;;;;;;;;;;;XXXX----====                ====----XXXX;;;;;;;;;;;;",
";;;;;;;;;;;;XXXX####------------------------####XXXX;;;;;;;;;;;;",
";;;;;;;;;;;;XXXX####------------------------####XXXX;;;;;;;;;;;;",
";;;;;;;;;;;;XXXX####------------------------####XXXX;;;;;;;;;;;;",
";;;;;;;;;;;;XXXX####------------------------####XXXX;;;;;;;;;;;;",
";;;;;;;;;;;;XXXX####****########========****####XXXX;;;;;;;;;;;;",
";;;;;;;;;;;;XXXX####****########========****####XXXX;;;;;;;;;;;;",
";;;;;;;;;;;;XXXX####****########========****####XXXX;;;;;;;;;;;;",
";;;;;;;;;;;;XXXX####****########========****####XXXX;;;;;;;;;;;;",
";;;;;;;;;;;;;;;;;;;;========****************;;;;;;;;;;;;;;;;;;;;",
";;;;;;;;;;;;;;;;;;;;========****************;;;;;;;;;;;;;;;;;;;;",
";;;;;;;;;;;;;;;;;;;;========****************;;;;;;;;;;;;;;;;;;;;",
";;;;;;;;;;;;;;;;;;;;========****************;;;;;;;;;;;;;;;;;;;;",
";;;;;;;;;;;;;;;;;;;;;;;;;;;;;;;;;;;;;;;;;;;;;;;;;;;;;;;;;;;;;;;;",
";;;;;;;;;;;;;;;;;;;;;;;;;;;;;;;;;;;;;;;;;;;;;;;;;;;;;;;;;;;;;;;;",
";;;;;;;;;;;;;;;;;;;;;;;;;;;;;;;;;;;;;;;;;;;;;;;;;;;;;;;;;;;;;;;;",
";;;;;;;;;;;;;;;;;;;;;;;;;;;;;;;;;;;;;;;;;;;;;;;;;;;;;;;;;;;;;;;;"
};
