/* XPM */
static char *_c34dfa1134749b3de919af8c879bacbtCXk57ReM8L7M6Im[] = {
/* columns rows colors chars-per-pixel */
"64 64 11 1 ",
"  c #4E6338",
". c gray9",
"X c #2E2415",
"o c #213F2F",
"O c #4F3712",
"+ c #346B3D",
"@ c #644F1B",
"# c #7B642E",
"$ c #598C46",
"% c #77A947",
"& c #93C147",
/* pixels */
"                            ........                            ",
"                            ........                            ",
"                            ........                            ",
"                            ........                            ",
"                        ....&&&&&&&&....                        ",
"                        ....&&&&&&&&....                        ",
"                        ....&&&&&&&&....                        ",
"                        ....&&&&&&&&....                        ",
"                    ....$$$$&&&&&&&&$$$$....                    ",
"                    ....$$$$&&&&&&&&$$$$....                    ",
"                    ....$$$$&&&&&&&&$$$$....                    ",
"                    ....$$$$&&&&&&&&$$$$....                    ",
"                    ....%%%%%%%%%%%%%%%%....                    ",
"                    ....%%%%%%%%%%%%%%%%....                    ",
"                    ....%%%%%%%%%%%%%%%%....                    ",
"                    ....%%%%%%%%%%%%%%%%....                    ",
"                ....++++$$$$%%%%%%%%$$$$++++....                ",
"                ....++++$$$$%%%%%%%%$$$$++++....                ",
"                ....++++$$$$%%%%%%%%$$$$++++....                ",
"                ....++++$$$$%%%%%%%%$$$$++++....                ",
"            ....oooo$$$$$$$$$$$$$$$$$$$$$$$$oooo....            ",
"            ....oooo$$$$$$$$$$$$$$$$$$$$$$$$oooo....            ",
"            ....oooo$$$$$$$$$$$$$$$$$$$$$$$$oooo....            ",
"            ....oooo$$$$$$$$$$$$$$$$$$$$$$$$oooo....            ",
"            ....++++++++$$$$$$$$$$$$$$$$++++++++....            ",
"            ....++++++++$$$$$$$$$$$$$$$$++++++++....            ",
"            ....++++++++$$$$$$$$$$$$$$$$++++++++....            ",
"            ....++++++++$$$$$$$$$$$$$$$$++++++++....            ",
"            ....++++++++++++++++++++++++++++++++....            ",
"            ....++++++++++++++++++++++++++++++++....            ",
"            ....++++++++++++++++++++++++++++++++....            ",
"            ....++++++++++++++++++++++++++++++++....            ",
"            ....oooo++++++++++++++++++++++++oooo....            ",
"            ....oooo++++++++++++++++++++++++oooo....            ",
"            ....oooo++++++++++++++++++++++++oooo....            ",
"            ....oooo++++++++++++++++++++++++oooo....            ",
"            ....oooooooooooooooooooooooooooooooo....            ",
"            ....oooooooooooooooooooooooooooooooo....            ",
"            ....oooooooooooooooooooooooooooooooo....            ",
"            ....oooooooooooooooooooooooooooooooo....            ",
"                ....oooooooooooooooooooooooo....                ",
"                ....oooooooooooooooooooooooo....                ",
"                ....oooooooooooooooooooooooo....                ",
"                ....oooooooooooooooooooooooo....                ",
"                    ....XXXXOOOOOOOOXXXX....                    ",
"                    ....XXXXOOOOOOOOXXXX....                    ",
"                    ....XXXXOOOOOOOOXXXX....                    ",
"                    ....XXXXOOOOOOOOXXXX....                    ",
"                    XXXXOOOO@@@@@@@@OOOOXXXX                    ",
"                    XXXXOOOO@@@@@@@@OOOOXXXX                    ",
"                    XXXXOOOO@@@@@@@@OOOOXXXX                    ",
"                    XXXXOOOO@@@@@@@@OOOOXXXX                    ",
"                        XXXX########XXXX                        ",
"                        XXXX########XXXX                        ",
"                        XXXX########XXXX                        ",
"                        XXXX########XXXX                        ",
"                                                                ",
"                                                                ",
"                                                                ",
"                                                                ",
"                                                                ",
"                                                                ",
"                                                                ",
"                                                                "
};
