/* XPM */
static char *result[] = {
/* columns rows colors chars-per-pixel */
"64 64 17 1 ",
"  c #070707",
". c #29211E",
"X c #452E25",
"o c #58362A",
"O c #6E492F",
"+ c #565656",
"@ c #767676",
"# c #835835",
"$ c #B38047",
"% c #D09F69",
"& c #4725FF",
"* c #439DFF",
"= c #9E9E96",
"- c #82CAFF",
"; c #C1C1C1",
": c #D5FBFF",
"> c #4E6338",
/* pixels */
">>>>>>>>>>>>>>>>>>>>>>>>>>>>>>>>>>>>>>>>>>>>>>>>>>>>>>>>>>>>>>>>",
">>>>>>>>>>>>>>>>>>>>>>>>>>>>>>>>>>>>>>>>>>>>>>>>>>>>>>>>>>>>>>>>",
">>>>>>>>>>>>>>>>>>>>>>>>>>>>>>>>>>>>>>>>>>>>>>>>>>>>>>>>>>>>>>>>",
">>>>>>>>>>>>>>>>>>>>>>>>>>>>>>>>>>>>>>>>>>>>>>>>>>>>>>>>>>>>>>>>",
">>>>>>>>>>>>>>>>>>>>>>>>>>>>>>>>>>>>>>>>>>>>>>>>>>>>>>>>>>>>>>>>",
">>>>>>>>>>>>>>>>>>>>>>>>>>>>>>>>>>>>>>>>>>>>>>>>>>>>>>>>>>>>>>>>",
">>>>>>>>>>>>>>>>>>>>>>>>>>>>>>>>>>>>>>>>>>>>>>>>>>>>>>>>>>>>>>>>",
">>>>>>>>>>>>>>>>>>>>>>>>>>>>>>>>>>>>>>>>>>>>>>>>>>>>>>>>>>>>>>>>",
">>>>>>>>>>>>>>>>>>>>>>>>>>>>>>>>>>>>>>>>>>>>>>>>>>>>>>>>>>>>>>>>",
">>>>>>>>>>>>>>>>>>>>>>>>>>>>>>>>>>>>>>>>>>>>>>>>>>>>>>>>>>>>>>>>",
">>>>>>>>>>>>>>>>>>>>>>>>>>>>>>>>>>>>>>>>>>>>>>>>>>>>>>>>>>>>>>>>",
">>>>>>>>>>>>>>>>>>>>>>>>>>>>>>>>>>>>>>>>>>>>>>>>>>>>>>>>>>>>>>>>",
">>>>>>>>>>>>>>>>                        >>>>>>>>>>>>>>>>>>>>>>>>",
">>>>>>>>>>>>>>>>                        >>>>>>>>>>>>>>>>>>>>>>>>",
">>>>>>>>>>>>>>>>                        >>>>>>>>>>>>>>>>>>>>>>>>",
">>>>>>>>>>>>>>>>                        >>>>>>>>>>>>>>>>>>>>>>>>",
">>>>>>>>>>>>    %%%%$$$$%%%%%%%%$$$$%%%%                >>>>>>>>",
">>>>>>>>>>>>    %%%%$$$$%%%%%%%%$$$$%%%%                >>>>>>>>",
">>>>>>>>>>>>    %%%%$$$$%%%%%%%%$$$$%%%%                >>>>>>>>",
">>>>>>>>>>>>    %%%%$$$$%%%%%%%%$$$$%%%%                >>>>>>>>",
">>>>>>>>    %%%%$$$$oooooooooooooooo$$$$%%%%oooo$$$$oooo    >>>>",
">>>>>>>>    %%%%$$$$oooooooooooooooo$$$$%%%%oooo$$$$oooo    >>>>",
">>>>>>>>    %%%%$$$$oooooooooooooooo$$$$%%%%oooo$$$$oooo    >>>>",
">>>>>>>>    %%%%$$$$oooooooooooooooo$$$$%%%%oooo$$$$oooo    >>>>",
">>>>>>>>    %%%%oooo****&&&&&&&&&&&&oooo%%%%OOOO%%%%%%%%    >>>>",
">>>>>>>>    %%%%oooo****&&&&&&&&&&&&oooo%%%%OOOO%%%%%%%%    >>>>",
">>>>>>>>    %%%%oooo****&&&&&&&&&&&&oooo%%%%OOOO%%%%%%%%    >>>>",
">>>>>>>>    %%%%oooo****&&&&&&&&&&&&oooo%%%%OOOO%%%%%%%%    >>>>",
">>>>>>>>    %%%%$$$$----::::----****$$$$%%%%oooo$$$$OOOO    >>>>",
">>>>>>>>    %%%%$$$$----::::----****$$$$%%%%oooo$$$$OOOO    >>>>",
">>>>>>>>    %%%%$$$$----::::----****$$$$%%%%oooo$$$$OOOO    >>>>",
">>>>>>>>    %%%%$$$$----::::----****$$$$%%%%oooo$$$$OOOO    >>>>",
">>>>>>>>    ####%%%%$$$$%%%%%%%%$$$$%%%%####....oooooooo    >>>>",
">>>>>>>>    ####%%%%$$$$%%%%%%%%$$$$%%%%####....oooooooo    >>>>",
">>>>>>>>    ####%%%%$$$$%%%%%%%%$$$$%%%%####....oooooooo    >>>>",
">>>>>>>>    ####%%%%$$$$%%%%%%%%$$$$%%%%####....oooooooo    >>>>",
">>>>>>>>    oooo####oooo########oooo####oooo    ....oooo    >>>>",
">>>>>>>>    oooo####oooo########oooo####oooo    ....oooo    >>>>",
">>>>>>>>    oooo####oooo########oooo####oooo    ....oooo    >>>>",
">>>>>>>>    oooo####oooo########oooo####oooo    ....oooo    >>>>",
">>>>>>>>    ++++OOOOooooOOOOOOOOooooOOOO++++....oooo    >>>>>>>>",
">>>>>>>>    ++++OOOOooooOOOOOOOOooooOOOO++++....oooo    >>>>>>>>",
">>>>>>>>    ++++OOOOooooOOOOOOOOooooOOOO++++....oooo    >>>>>>>>",
">>>>>>>>    ++++OOOOooooOOOOOOOOooooOOOO++++....oooo    >>>>>>>>",
">>>>>>>>    oooo@@@@====;;;;;;;;====@@@@oooo        >>>>>>>>>>>>",
">>>>>>>>    oooo@@@@====;;;;;;;;====@@@@oooo        >>>>>>>>>>>>",
">>>>>>>>    oooo@@@@====;;;;;;;;====@@@@oooo        >>>>>>>>>>>>",
">>>>>>>>    oooo@@@@====;;;;;;;;====@@@@oooo        >>>>>>>>>>>>",
">>>>>>>>>>>>    OOOOXXXXOOOOOOOOXXXXOOOO    >>>>>>>>>>>>>>>>>>>>",
">>>>>>>>>>>>    OOOOXXXXOOOOOOOOXXXXOOOO    >>>>>>>>>>>>>>>>>>>>",
">>>>>>>>>>>>    OOOOXXXXOOOOOOOOXXXXOOOO    >>>>>>>>>>>>>>>>>>>>",
">>>>>>>>>>>>    OOOOXXXXOOOOOOOOXXXXOOOO    >>>>>>>>>>>>>>>>>>>>",
">>>>>>>>>>>>>>>>                        >>>>>>>>>>>>>>>>>>>>>>>>",
">>>>>>>>>>>>>>>>                        >>>>>>>>>>>>>>>>>>>>>>>>",
">>>>>>>>>>>>>>>>                        >>>>>>>>>>>>>>>>>>>>>>>>",
">>>>>>>>>>>>>>>>                        >>>>>>>>>>>>>>>>>>>>>>>>",
">>>>>>>>>>>>>>>>>>>>>>>>>>>>>>>>>>>>>>>>>>>>>>>>>>>>>>>>>>>>>>>>",
">>>>>>>>>>>>>>>>>>>>>>>>>>>>>>>>>>>>>>>>>>>>>>>>>>>>>>>>>>>>>>>>",
">>>>>>>>>>>>>>>>>>>>>>>>>>>>>>>>>>>>>>>>>>>>>>>>>>>>>>>>>>>>>>>>",
">>>>>>>>>>>>>>>>>>>>>>>>>>>>>>>>>>>>>>>>>>>>>>>>>>>>>>>>>>>>>>>>",
">>>>>>>>>>>>>>>>>>>>>>>>>>>>>>>>>>>>>>>>>>>>>>>>>>>>>>>>>>>>>>>>",
">>>>>>>>>>>>>>>>>>>>>>>>>>>>>>>>>>>>>>>>>>>>>>>>>>>>>>>>>>>>>>>>",
">>>>>>>>>>>>>>>>>>>>>>>>>>>>>>>>>>>>>>>>>>>>>>>>>>>>>>>>>>>>>>>>",
">>>>>>>>>>>>>>>>>>>>>>>>>>>>>>>>>>>>>>>>>>>>>>>>>>>>>>>>>>>>>>>>"
};
