/* XPM */
static char *result[] = {
/* columns rows colors chars-per-pixel */
"64 64 18 1 ",
"  c #040404",
". c #3F3013",
"X c #002E27",
"o c #433416",
"O c #004F43",
"+ c #007966",
"@ c #6E6C68",
"# c #866114",
"$ c #84482A",
"% c #AA5A33",
"& c #D97F40",
"* c #F6A954",
"= c #00B49D",
"- c #BFB7A6",
"; c #F7D099",
": c #C8C1B3",
"> c gray91",
", c #586738",
/* pixels */
",,,,,,,,,,,,,,,,,,,,,,,,,,,,,,,,,,,,,,,,,,,,,,,,,,,,,,,,,,,,,,,,",
",,,,,,,,,,,,,,,,,,,,,,,,,,,,,,,,,,,,,,,,,,,,,,,,,,,,,,,,,,,,,,,,",
",,,,,,,,,,,,,,,,,,,,,,,,,,,,,,,,,,,,,,,,,,,,,,,,,,,,,,,,,,,,,,,,",
",,,,,,,,,,,,,,,,,,,,,,,,,,,,,,,,,,,,,,,,,,,,,,,,,,,,,,,,,,,,,,,,",
",,,,,,,,,,,,,,,,,,,,,,,,,,,,,,,,,,,,,,,,,,,,,,,,,,,,,,,,,,,,,,,,",
",,,,,,,,,,,,,,,,,,,,,,,,,,,,,      ,,,,,,,,,,,,,,,,,,,,,,,,,,,,,",
",,,,,,,,,,,,,,,,,,,,,,,,,,,,,      ,,,,,,,,,,,,,,,,,,,,,,,,,,,,,",
",,,,,,,,,,,,,,,,,,,,,,,,,,,,,      ,,,,,,,,,,,,,,,,,,,,,,,,,,,,,",
",,,,,,,,,,,,,,,,,,,,,,,,,,   ++++++   ,,,,,,,,,,,,,,,,,,,,,,,,,,",
",,,,,,,,,,,,,,,,,,,,,,,,,,   ++++++   ,,,,,,,,,,,,,,,,,,,,,,,,,,",
",,,,,,,,,,,,,,,,,,,,,,,,,,   ++++++   ,,,,,,,,,,,,,,,,,,,,,,,,,,",
",,,,,,,,,,,,,,,,,,,,,,,   +++======+++   ,,,,,,,,,,,,,,,,,,,,,,,",
",,,,,,,,,,,,,,,,,,,,,,,   +++======+++   ,,,,,,,,,,,,,,,,,,,,,,,",
",,,,,,,,,,,,,,,,,,,,,,,   +++======+++   ,,,,,,,,,,,,,,,,,,,,,,,",
",,,,,,,,,,,,,,,,,      ooo+++======+++ooo      ,,,,,,,,,,,,,,,,,",
",,,,,,,,,,,,,,,,,      ooo+++======+++ooo      ,,,,,,,,,,,,,,,,,",
",,,,,,,,,,,,,,,,,      ooo+++======+++ooo      ,,,,,,,,,,,,,,,,,",
",,,,,,,,,,,,,,   XXXXXX###OOO++++++OOO###XXXXXX   ,,,,,,,,,,,,,,",
",,,,,,,,,,,,,,   XXXXXX###OOO++++++OOO###XXXXXX   ,,,,,,,,,,,,,,",
",,,,,,,,,,,,,,   XXXXXX###OOO++++++OOO###XXXXXX   ,,,,,,,,,,,,,,",
",,,,,,,,,,,   XXXXXXOOOooo@@@::::::@@@oooOOOXXXXXX   ,,,,,,,,,,,",
",,,,,,,,,,,   XXXXXXOOOooo@@@::::::@@@oooOOOXXXXXX   ,,,,,,,,,,,",
",,,,,,,,,,,   XXXXXXOOOooo@@@::::::@@@oooOOOXXXXXX   ,,,,,,,,,,,",
",,,,,,,,,,,   OOOOOOOOOOOO---oooooo---OOOOOOOOOOOO   ,,,,,,,,,,,",
",,,,,,,,,,,   OOOOOOOOOOOO---oooooo---OOOOOOOOOOOO   ,,,,,,,,,,,",
",,,,,,,,,,,   OOOOOOOOOOOO---oooooo---OOOOOOOOOOOO   ,,,,,,,,,,,",
",,,,,,,,,,,   OOO+++++++++@@@------@@@+++++++++OOO   ,,,,,,,,,,,",
",,,,,,,,,,,   OOO+++++++++@@@------@@@+++++++++OOO   ,,,,,,,,,,,",
",,,,,,,,,,,   OOO+++++++++@@@------@@@+++++++++OOO   ,,,,,,,,,,,",
",,,,,,,,,,,   XXXOOO+++==================+++OOOXXX   ,,,,,,,,,,,",
",,,,,,,,,,,   XXXOOO+++==================+++OOOXXX   ,,,,,,,,,,,",
",,,,,,,,,,,   XXXOOO+++==================+++OOOXXX   ,,,,,,,,,,,",
",,,,,,,,,,,,,,   XXXXXXOOOOOOOOOOOOOOOOOOXXXXXX   ,,,,,,,,,,,,,,",
",,,,,,,,,,,,,,   XXXXXXOOOOOOOOOOOOOOOOOOXXXXXX   ,,,,,,,,,,,,,,",
",,,,,,,,,,,,,,   XXXXXXOOOOOOOOOOOOOOOOOOXXXXXX   ,,,,,,,,,,,,,,",
",,,,,,,,,,,,,,,,,      >>>   ;;;;;;   >>>      ,,,,,,,,,,,,,,,,,",
",,,,,,,,,,,,,,,,,      >>>   ;;;;;;   >>>      ,,,,,,,,,,,,,,,,,",
",,,,,,,,,,,,,,,,,      >>>   ;;;;;;   >>>      ,,,,,,,,,,,,,,,,,",
",,,,,,,,,,,,,,,,,   +++%%%************%%%+++   ,,,,,,,,,,,,,,,,,",
",,,,,,,,,,,,,,,,,   +++%%%************%%%+++   ,,,,,,,,,,,,,,,,,",
",,,,,,,,,,,,,,,,,   +++%%%************%%%+++   ,,,,,,,,,,,,,,,,,",
",,,,,,,,,,,,,,   +++++++++$$$$$$$$$$$$+++++++++   ,,,,,,,,,,,,,,",
",,,,,,,,,,,,,,   +++++++++$$$$$$$$$$$$+++++++++   ,,,,,,,,,,,,,,",
",,,,,,,,,,,,,,   +++++++++$$$$$$$$$$$$+++++++++   ,,,,,,,,,,,,,,",
",,,,,,,,,,,   ******   OOO++++++++++++OOO   ******   ,,,,,,,,,,,",
",,,,,,,,,,,   ******   OOO++++++++++++OOO   ******   ,,,,,,,,,,,",
",,,,,,,,,,,   ******   OOO++++++++++++OOO   ******   ,,,,,,,,,,,",
",,,,,,,,,,,   ***&&&   OOOOOOOOOOOOOOOOOO   &&&***   ,,,,,,,,,,,",
",,,,,,,,,,,   ***&&&   OOOOOOOOOOOOOOOOOO   &&&***   ,,,,,,,,,,,",
",,,,,,,,,,,   ***&&&   OOOOOOOOOOOOOOOOOO   &&&***   ,,,,,,,,,,,",
",,,,,,,,,,,,,,         XXXOOOOOOOOOOOOXXX         ,,,,,,,,,,,,,,",
",,,,,,,,,,,,,,         XXXOOOOOOOOOOOOXXX         ,,,,,,,,,,,,,,",
",,,,,,,,,,,,,,         XXXOOOOOOOOOOOOXXX         ,,,,,,,,,,,,,,",
",,,,,,,,,,,,,,,,,,,,   ......      ......   ,,,,,,,,,,,,,,,,,,,,",
",,,,,,,,,,,,,,,,,,,,   ......      ......   ,,,,,,,,,,,,,,,,,,,,",
",,,,,,,,,,,,,,,,,,,,   ......      ......   ,,,,,,,,,,,,,,,,,,,,",
",,,,,,,,,,,,,,,,,,,,,,,,,,,,,,,,,,,,,,,,,,,,,,,,,,,,,,,,,,,,,,,,",
",,,,,,,,,,,,,,,,,,,,,,,,,,,,,,,,,,,,,,,,,,,,,,,,,,,,,,,,,,,,,,,,",
",,,,,,,,,,,,,,,,,,,,,,,,,,,,,,,,,,,,,,,,,,,,,,,,,,,,,,,,,,,,,,,,",
",,,,,,,,,,,,,,,,,,,,,,,,,,,,,,,,,,,,,,,,,,,,,,,,,,,,,,,,,,,,,,,,",
",,,,,,,,,,,,,,,,,,,,,,,,,,,,,,,,,,,,,,,,,,,,,,,,,,,,,,,,,,,,,,,,",
",,,,,,,,,,,,,,,,,,,,,,,,,,,,,,,,,,,,,,,,,,,,,,,,,,,,,,,,,,,,,,,,",
",,,,,,,,,,,,,,,,,,,,,,,,,,,,,,,,,,,,,,,,,,,,,,,,,,,,,,,,,,,,,,,,",
",,,,,,,,,,,,,,,,,,,,,,,,,,,,,,,,,,,,,,,,,,,,,,,,,,,,,,,,,,,,,,,,"
};
